dist/assets/images/ico/ico_grimmy.svg

<svg width="22" height="21" viewBox="0 0 22 21" fill="none" xmlns="http://www.w3.org/2000/svg">
<g filter="url(#filter0_d_99_6226)">
<path d="M7.33333 6.10726H5.66667V12.4842H16.3333V6.10726H14.6667V5.44059H16.3333C16.7015 5.44059 17 5.73907 17 6.10726V13.4406C16.9999 13.8087 16.7015 14.1073 16.3333 14.1073H11.5V15.4425H13.6667V16.4425H8.33333V15.4425H10.5V14.1073H5.66667C5.29852 14.1073 5.00007 13.8087 5 13.4406V6.10726C5 5.73907 5.29848 5.44059 5.66667 5.44059H7.33333V6.10726Z" fill="#FEF8CA" shape-rendering="crispEdges"/>
<path d="M11.3991 4.30713C12.1421 4.30713 12.6562 4.6264 12.9896 4.96663L12.4408 5.61963C12.1908 5.37666 11.8993 5.18935 11.4342 5.18929C10.5801 5.18929 9.98242 5.85596 9.98242 6.96012C9.98249 8.07797 10.4965 8.75169 11.5033 8.75179C11.7532 8.75179 12.0032 8.68206 12.1491 8.55713V7.54346H11.2396V6.70296H13.0658V9.02262C12.7185 9.3628 12.1142 9.64046 11.3991 9.64046C9.99642 9.64037 8.93424 8.70982 8.93424 6.99463C8.93424 5.30027 10.0311 4.30723 11.3991 4.30713Z" fill="#FEF8CA" shape-rendering="crispEdges"/>
<path d="M7.83301 4.94092V6.60693H6.16699V11.9839H15.833V6.60693H14.167V4.94092H16.333C16.9772 4.94092 17.4998 5.46275 17.5 6.10693V13.4409L17.4941 13.5601C17.4343 14.1481 16.9371 14.6069 16.333 14.6069H12V14.9429H14.167V16.9429H7.83301V14.9429H10V14.6069H5.66699C5.02269 14.6069 4.50025 14.0849 4.5 13.4409V6.10693L4.50586 5.98779C4.56568 5.39957 5.06299 4.94092 5.66699 4.94092H7.83301ZM11.5654 3.81201C12.381 3.8568 12.9646 4.22672 13.3467 4.6167L13.6641 4.94092L13.3721 5.28857L12.8232 5.94092L12.6035 6.20264H13.5654V9.23291L13.416 9.37939C12.9693 9.817 12.2365 10.1401 11.3994 10.1401C10.5862 10.1401 9.83338 9.8689 9.28418 9.31201C8.7342 8.75426 8.43457 7.95733 8.43457 6.99463C8.43457 6.0369 8.74598 5.23374 9.29395 4.66748C9.84127 4.1019 10.5918 3.80719 11.3994 3.80713L11.5654 3.81201ZM10.8369 8.04346C10.9802 8.16811 11.1883 8.25137 11.5029 8.25146C11.5581 8.25146 11.6072 8.24536 11.6494 8.23779V8.04346H10.8369ZM11.4346 5.68896C11.1472 5.68896 10.9267 5.79716 10.7705 5.98291C10.608 6.17644 10.4824 6.49556 10.4824 6.96045L10.4873 7.13623C10.5105 7.51616 10.6102 7.77501 10.7393 7.93994V6.20264H12.3232L12.0918 5.97803C11.9031 5.79462 11.7301 5.68909 11.4346 5.68896Z" stroke="black" stroke-opacity="0.8" shape-rendering="crispEdges"/>
</g>
<defs>
<filter id="filter0_d_99_6226" x="0.773662" y="0.0807912" width="20.4527" height="20.5879" filterUnits="userSpaceOnUse" color-interpolation-filters="sRGB">
<feFlood flood-opacity="0" result="BackgroundImageFix"/>
<feColorMatrix in="SourceAlpha" type="matrix" values="0 0 0 0 0 0 0 0 0 0 0 0 0 0 0 0 0 0 127 0" result="hardAlpha"/>
<feOffset/>
<feGaussianBlur stdDeviation="1.61317"/>
<feComposite in2="hardAlpha" operator="out"/>
<feColorMatrix type="matrix" values="0 0 0 0 0 0 0 0 0 0 0 0 0 0 0 0 0 0 0.5 0"/>
<feBlend mode="normal" in2="BackgroundImageFix" result="effect1_dropShadow_99_6226"/>
<feBlend mode="normal" in="SourceGraphic" in2="effect1_dropShadow_99_6226" result="shape"/>
</filter>
</defs>
</svg>

<svg width="22" height="21" fill="none" xmlns="http://www.w3.org/2000/svg"><g filter="url(#filter0_d_99_6226)" shape-rendering="crispEdges"><path d="M7.333 6.107H5.667v6.377h10.666V6.107h-1.666v-.666h1.666c.369 0 .667.298.667.666v7.334a.667.667 0 01-.667.666H11.5v1.336h2.167v1H8.333v-1H10.5v-1.336H5.667A.667.667 0 015 13.441V6.107c0-.368.298-.666.667-.666h1.666v.666z" fill="#FEF8CA"/><path d="M11.4 4.307c.742 0 1.256.32 1.59.66l-.55.653c-.25-.243-.54-.43-1.006-.43-.854 0-1.452.666-1.452 1.77 0 1.118.514 1.792 1.521 1.792.25 0 .5-.07.646-.195V7.543h-.91v-.84h1.827v2.32c-.348.34-.952.617-1.667.617-1.403 0-2.465-.93-2.465-2.645 0-1.695 1.097-2.688 2.465-2.688z" fill="#FEF8CA"/><path d="M7.833 4.94v1.667H6.167v5.377h9.666V6.607h-1.666V4.94h2.166c.644 0 1.167.522 1.167 1.166v7.334l-.006.12a1.167 1.167 0 01-1.161 1.046H12v.336h2.167v2H7.833v-2H10v-.336H5.667A1.167 1.167 0 014.5 13.44V6.107l.006-.12a1.167 1.167 0 011.161-1.046h2.166zm3.732-1.128c.816.045 1.4.415 1.782.805l.317.324-.292.348-.549.652-.22.262h.962v3.03l-.149.146c-.447.438-1.18.761-2.017.761-.813 0-1.566-.271-2.115-.828-.55-.558-.85-1.355-.85-2.317 0-.958.312-1.761.86-2.328.547-.565 1.298-.86 2.105-.86l.166.005zm-.728 4.231c.143.125.351.208.666.208a.824.824 0 00.146-.013v-.195h-.812zm.598-2.354a.829.829 0 00-.665.294c-.162.193-.288.513-.288.977l.005.176c.024.38.123.639.252.804V6.203h1.584l-.231-.225c-.189-.183-.362-.289-.657-.289z" stroke="#000" stroke-opacity=".8"/></g><defs><filter id="filter0_d_99_6226" x=".774" y=".081" width="20.453" height="20.588" filterUnits="userSpaceOnUse" color-interpolation-filters="sRGB"><feFlood flood-opacity="0" result="BackgroundImageFix"/><feColorMatrix in="SourceAlpha" values="0 0 0 0 0 0 0 0 0 0 0 0 0 0 0 0 0 0 127 0" result="hardAlpha"/><feOffset/><feGaussianBlur stdDeviation="1.613"/><feComposite in2="hardAlpha" operator="out"/><feColorMatrix values="0 0 0 0 0 0 0 0 0 0 0 0 0 0 0 0 0 0 0.5 0"/><feBlend in2="BackgroundImageFix" result="effect1_dropShadow_99_6226"/><feBlend in="SourceGraphic" in2="effect1_dropShadow_99_6226" result="shape"/></filter></defs></svg>
